X: 63
T: Punch's Wedding
R: reel
M: 2/4
L: 1/16
Z: 2012 John Chambers <jc:trillian.mit.edu>
B: Saml. Ann & Peter Thompson "Twenty Four Country Dances for the Year 1791", London 1791, p.32 #1
K: D
% - - - - - - - - - - - - - - - - - - - - - - - - -
|:\
D2F2 ABAF | Bdce dfdA |\
D2F2 ABAF | Bdce d2D2 :|
|:\
defe dBAF | defg e2A2 |\
defe dBAF | afef d2d2 :|
% - - - - - - - - Dance description - - - - - - - -
%%begintext align
%% 1st Cu: set to the 2d Lady and hands 3 round .|.
%% the same to the 2d Gent: :|.
%% cross over one Cu: .|:
%% Right and Left :|:
%%endtext

%%sep 1 1 500
%%sep 1 1 500
